X: 22289
T: La Piquée Double
R: jig
M: 6/8
K: Gmajor
dd/d/d B2 G|dd/d/d A2 D|G2 G A2 A|dec B2 G|
d>dd B3|d>dd A2 D|GGG AAA|BcA G3||
G3 A3|d2 c BdB|GGG AA/A/A|BBA G2 D|
GDG A2 A|dec B/c/dB|GDG A2 A|BcA G3||

